assets/img/icons/gift card.svg

<?xml version="1.0" ?><svg height="48" viewBox="0 0 48 48" width="48" xmlns="http://www.w3.org/2000/svg"><path d="M40 12h-4.37c.22-.63.37-1.3.37-2 0-3.31-2.69-6-6-6-2.09 0-3.93 1.07-5 2.69l-1 1.36-1-1.36c-1.07-1.62-2.91-2.69-5-2.69-3.31 0-6 2.69-6 6 0 .7.14 1.37.37 2h-4.37c-2.21 0-3.98 1.79-3.98 4l-.02 22c0 2.21 1.79 4 4 4h32c2.21 0 4-1.79 4-4v-22c0-2.21-1.79-4-4-4zm-10-4c1.1 0 2 .9 2 2s-.9 2-2 2-2-.9-2-2 .9-2 2-2zm-12 0c1.1 0 2 .9 2 2s-.9 2-2 2-2-.9-2-2 .9-2 2-2zm22 30h-32v-4h32v4zm0-10h-32v-12h10.16l-4.16 5.67 3.25 2.33 4.75-6.47 2-2.72 2 2.72 4.75 6.47 3.25-2.33-4.16-5.67h10.16v12z"/><path d="M0 0h48v48h-48z" fill="none"/></svg>

<?xml version="1.0" encoding="utf-8"?>
<!-- Generator: Adobe Illustrator 16.0.0, SVG Export Plug-In . SVG Version: 6.00 Build 0)  -->
<!DOCTYPE svg PUBLIC "-//W3C//DTD SVG 1.1//EN" "http://www.w3.org/Graphics/SVG/1.1/DTD/svg11.dtd">
<svg version="1.1" id="Layer_1" xmlns="http://www.w3.org/2000/svg" xmlns:xlink="http://www.w3.org/1999/xlink" x="0px" y="0px"
	 width="40px" height="38px" viewBox="4 4 40 38" enable-background="new 4 4 40 38" xml:space="preserve">
<path d="M40,12h-4.37c0.22-0.63,0.37-1.3,0.37-2c0-3.31-2.689-6-6-6c-2.09,0-3.93,1.07-5,2.69l-1,1.36l-1-1.36
	C21.93,5.07,20.09,4,18,4c-3.31,0-6,2.69-6,6c0,0.7,0.14,1.37,0.37,2H8c-2.21,0-3.98,1.79-3.98,4L4,38c0,2.21,1.79,4,4,4h32
	c2.21,0,4-1.79,4-4V16C44,13.79,42.21,12,40,12z M30,8c1.1,0,2,0.9,2,2s-0.9,2-2,2s-2-0.9-2-2S28.9,8,30,8z M18,8c1.1,0,2,0.9,2,2
	s-0.9,2-2,2s-2-0.9-2-2S16.9,8,18,8z M40,38H8v-4h32V38z M40,28H8V16h10.16L14,21.67L17.25,24L22,17.53l2-2.72l2,2.72L30.75,24
	L34,21.67L29.84,16H40V28z"/>
<path fill="none" d="M0,0h48v48H0V0z"/>
</svg>
